tools/download-figma-icons/icons/solid/worldwide.svg

<svg width="24" height="24" viewBox="0 0 24 24" fill="none" xmlns="http://www.w3.org/2000/svg">
<path fill-rule="evenodd" clip-rule="evenodd" d="M7.48517 11.25H16.4702C16.3202 4.965 14.3619 0 11.9777 0C9.59267 0 7.63517 4.965 7.48517 11.25ZM5.98509 11.2497C6.08184 6.99723 7.01259 2.80548 8.72259 0.449733C3.90759 1.80048 0.322589 6.08298 8.93729e-05 11.2497H5.98509ZM23.9548 11.25H17.9705C17.873 6.9975 16.9423 2.805 15.2323 0.450002C20.0473 1.8 23.6323 6.0825 23.9548 11.25ZM8.72229 23.55C7.01229 21.195 6.08229 17.0025 5.98479 12.75H0.000543325C0.322293 17.9175 3.90729 22.2 8.72229 23.55ZM16.4702 12.75C16.3202 19.035 14.3619 24 11.9777 24C9.59267 24 7.63517 19.035 7.48517 12.75H16.4702ZM15.2323 23.55C20.0473 22.2 23.6323 17.9175 23.9548 12.75H17.9705C17.873 17.0025 16.9423 21.195 15.2323 23.55Z" fill="black"/>
</svg>

<svg width="24" height="24" viewBox="0 0 24 24" fill="none" xmlns="http://www.w3.org/2000/svg"><path fill-rule="evenodd" clip-rule="evenodd" d="M7.485 11.25h8.985C16.32 4.965 14.362 0 11.978 0 9.593 0 7.635 4.965 7.485 11.25Zm-1.5 0C6.082 6.997 7.013 2.805 8.723.45A12.006 12.006 0 0 0 0 11.25h5.985Zm17.97 0H17.97c-.098-4.253-1.029-8.445-2.739-10.8a12.005 12.005 0 0 1 8.723 10.8ZM8.722 23.55c-1.71-2.355-2.64-6.547-2.737-10.8H0a12.003 12.003 0 0 0 8.721 10.8Zm7.748-10.8C16.32 19.035 14.362 24 11.978 24c-2.385 0-4.343-4.965-4.493-11.25h8.985Zm-1.238 10.8a12.005 12.005 0 0 0 8.723-10.8H17.97c-.098 4.253-1.029 8.445-2.739 10.8Z" fill="currentColor"/></svg>
